app/assets/images/achievements/icons8-flying-saucer.svg

<?xml version="1.0"?><svg xmlns="http://www.w3.org/2000/svg"  viewBox="0 0 24 24" width="96px" height="96px">    <path d="M 12 3 C 8.69 3 6 5.47 6 8.5 C 6 10.93 11.39 11 12 11 C 12.61 11 18 10.93 18 8.5 C 18 5.47 15.31 3 12 3 z M 4.0996094 7.3007812 C 1.4696094 8.3107813 0 9.79 0 11.5 C 0 13.331 1.631 14.72725 4 15.65625 L 4 20 L 6 20 L 6 16.287109 C 7.555 16.679109 9.274 16.915469 11 16.980469 L 11 21 L 13 21 L 13 16.978516 C 14.726 16.913516 16.445 16.679109 18 16.287109 L 18 20 L 20 20 L 20 15.65625 C 22.369 14.72725 24 13.331 24 11.5 C 24 9.79 22.530391 8.3107813 19.900391 7.3007812 C 19.960391 7.6907813 20 8.09 20 8.5 C 20 11.32 17.01 13 12 13 C 6.99 13 4 11.32 4 8.5 C 4 8.09 4.0396094 7.6907813 4.0996094 7.3007812 z"/></svg>

<svg xmlns="http://www.w3.org/2000/svg" xmlns:xlink="http://www.w3.org/1999/xlink" viewBox="0,0,256,256" width="100px" height="100px"><g fill="#cec874" fill-rule="nonzero" stroke="none" stroke-width="1" stroke-linecap="butt" stroke-linejoin="miter" stroke-miterlimit="10" stroke-dasharray="" stroke-dashoffset="0" font-family="none" font-weight="none" font-size="none" text-anchor="none" style="mix-blend-mode: normal"><g transform="scale(10.66667,10.66667)"><path d="M12,3c-3.31,0 -6,2.47 -6,5.5c0,2.43 5.39,2.5 6,2.5c0.61,0 6,-0.07 6,-2.5c0,-3.03 -2.69,-5.5 -6,-5.5zM4.09961,7.30078c-2.63,1.01 -4.09961,2.48922 -4.09961,4.19922c0,1.831 1.631,3.22725 4,4.15625v4.34375h2v-3.71289c1.555,0.392 3.274,0.62836 5,0.69336v4.01953h2v-4.02148c1.726,-0.065 3.445,-0.29941 5,-0.69141v3.71289h2v-4.34375c2.369,-0.929 4,-2.32525 4,-4.15625c0,-1.71 -1.46961,-3.18922 -4.09961,-4.19922c0.06,0.39 0.09961,0.78922 0.09961,1.19922c0,2.82 -2.99,4.5 -8,4.5c-5.01,0 -8,-1.68 -8,-4.5c0,-0.41 0.03961,-0.80922 0.09961,-1.19922z"></path></g></g></svg>
